X: 21661
T: LORD PRESIDENT FORBES' STRATHSPEY
R: strathspey
B: K\"ohler's Violin Repository, v.2, 1885 p.166 #1
F: http://www.archive.org/details/klersviolinrepos02rugg
Z: 2012 John Chambers <jc:trillian.mit.edu>
M: C|
L: 1/8
K: F#m
uE |\
(.C>.F) (A>F) (.E>.C) (A,<C) | (C>F)(A>B) {dcB}c2 (c<f) |\
(.C>.F) (A>F) E>(CA,)>d | (c>B) {B}(A>G) [F2A,2] [FA,] :|
uc |\
(.f>g) {fg}(a>g) fcc^e | (.f>.g) {g}(a>g) {a}g2 (f^e) |\
(.f>.g) {fg}(a>g) fc(c>a) | (g>a) {ga}(b>g) {gfe}f2 f |]
c |\
(.f>.g) {fg}(a>g) fcc^e | (.f>.g) {g}(a>f) {a}g2 (f^e) |\
{c}(.a>.c) {c}(d>.B) c>A ^E<C | {F}(.c>.B) {B}(.A>.G) "^Segue Reel."[F2A,2] [FA,] |]

%%sep 2 1 500

